packages/icons/src/components/Logo/assets/light/apache-spark.svg

<svg width="20" height="20" viewBox="0 0 20 20" fill="none" xmlns="http://www.w3.org/2000/svg">
<path fill-rule="evenodd" clip-rule="evenodd" d="M18.2946 10.2492C18.2773 10.2122 18.2695 10.1935 18.2601 10.1758C18.0095 9.69901 17.7595 9.22225 17.5064 8.7455C17.481 8.69769 17.4842 8.66947 17.5189 8.62824C17.9177 8.16244 18.3114 7.69406 18.7108 7.23019C18.7249 7.21383 18.7375 7.1965 18.7428 7.16731C18.6268 7.19753 18.5108 7.22742 18.3942 7.25815C17.9129 7.38572 17.4278 7.51264 16.9511 7.64213C16.9063 7.65418 16.886 7.6411 16.8634 7.60387C16.5903 7.14708 16.3152 6.68901 16.0388 6.23803C16.0247 6.21439 16.0093 6.19145 15.9791 6.17167C15.957 6.29344 15.9345 6.41456 15.9128 6.53632C15.8361 6.96605 15.7594 7.39319 15.6834 7.82485C15.6751 7.87117 15.6638 7.91762 15.6598 7.96401C15.656 8.00833 15.6331 8.0247 15.5928 8.03745C15.0252 8.21591 14.4589 8.39566 13.8919 8.57541C13.867 8.58321 13.8426 8.59352 13.8159 8.61768C14.2798 8.80193 14.7436 8.98619 15.2139 9.17367C15.1968 9.18727 15.1855 9.19783 15.1729 9.20589C14.883 9.39337 14.5924 9.58085 14.3031 9.76897C14.2684 9.79165 14.241 9.79487 14.202 9.77728C13.8554 9.62137 13.5062 9.46804 13.1583 9.31341C13.0024 9.24383 12.8626 9.1517 12.7537 9.0177C12.5069 8.71618 12.5559 8.37344 12.8845 8.16083C12.9921 8.09189 13.1145 8.041 13.2362 8.00105C13.7922 7.82002 14.3508 7.64542 14.9049 7.47018C14.9517 7.4553 14.9732 7.43442 14.9822 7.38385C15.0569 6.95348 15.1336 6.52054 15.2116 6.09533C15.253 5.86532 15.2749 5.63017 15.3868 5.41885C15.4296 5.33767 15.4809 5.25843 15.5427 5.19078C15.7643 4.94467 16.0729 4.93565 16.3094 5.16965C16.3886 5.24889 16.4563 5.34167 16.5149 5.43766C16.7726 5.85837 17.0264 6.28165 17.2816 6.70686C17.3115 6.75692 17.3385 6.76697 17.3937 6.75241C18.0154 6.58555 18.6371 6.42126 19.262 6.25697C19.3909 6.22302 19.5204 6.21071 19.6525 6.23539C19.9391 6.28899 20.0648 6.50727 19.9675 6.78494C19.9235 6.91122 19.847 7.01752 19.7613 7.11867C19.3271 7.62957 18.8916 8.14305 18.4599 8.65201C18.4244 8.69376 18.4237 8.72353 18.4483 8.77056C18.7086 9.26084 18.9663 9.74984 19.2279 10.2459C19.2898 10.3632 19.3374 10.4856 19.3387 10.6202C19.3417 10.9269 19.1171 11.1782 18.8123 11.2233C18.6416 11.2482 18.4831 11.2117 18.3227 11.1624C17.9329 11.0419 17.5431 10.9234 17.1501 10.8055C17.1139 10.7946 17.1 10.7803 17.0935 10.7413C17.0487 10.4662 16.9994 10.1917 16.9518 9.91664C16.9505 9.9091 16.9528 9.90105 16.9541 9.88417C17.3993 10.0072 17.8432 10.1283 18.3006 10.2553" fill="#E25A1C"/>
<path d="M8.8484 9.76747C8.92894 9.76747 9.00882 9.74762 9.08162 9.71438L9.08201 9.71399L9.11068 9.46917C9.05141 9.5173 8.96379 9.55228 8.87295 9.55228C8.72477 9.55228 8.63071 9.43503 8.63071 9.28556C8.63071 9.08906 8.79757 8.91962 8.98505 8.91962C9.07525 8.91962 9.1485 8.9546 9.19379 9.00466L9.22401 8.75791C9.16345 8.72473 9.08936 8.70508 9.00753 8.70508C8.68025 8.70508 8.40515 8.98018 8.40515 9.30746C8.40515 9.56323 8.57588 9.76747 8.8484 9.76747Z" fill="#3C3A3E"/>
<path fill-rule="evenodd" clip-rule="evenodd" d="M5.15874 9.52884H4.80633L4.69423 9.74853H4.44426L4.9951 8.71771H5.23606L5.42354 9.74853H5.19225L5.15874 9.52884ZM4.91328 9.32139H5.12524L5.07512 9.00054L4.91328 9.32139Z" fill="#3C3A3E"/>
<path d="M3.77292 9.92698L3.76742 9.93108C3.7486 9.90586 3.73014 9.88092 3.71188 9.85626C3.659 9.78482 3.60779 9.71564 3.55413 9.64821C3.30931 9.33896 2.99169 9.15297 2.59418 9.1386C1.89838 9.11927 1.37202 9.42143 1.0093 10.0084C0.863439 10.2429 0.807324 10.507 0.846302 10.7879C0.88238 11.043 0.995126 11.266 1.1607 11.4579C1.31367 11.6378 1.47407 11.8113 1.63441 11.9847C1.72393 12.0815 1.81343 12.1783 1.9016 12.2762L1.91929 12.2957C2.01669 12.4033 2.11516 12.5122 2.19474 12.6324C2.34163 12.8541 2.30427 13.1002 2.10583 13.2767C2.04076 13.3347 1.9641 13.3846 1.88485 13.4204C1.57883 13.5589 1.27474 13.4738 1.08597 13.1936C1.04223 13.128 1.00861 13.0556 0.975009 12.9832C0.960099 12.9511 0.945193 12.919 0.929412 12.8876C0.922886 12.874 0.917312 12.86 0.911174 12.8446C0.908284 12.8374 0.905265 12.8298 0.901966 12.8218C0.717305 12.9205 0.533862 13.0187 0.349089 13.1176L0 13.3044C0.0149792 13.3414 0.0292829 13.3781 0.0434698 13.4146C0.0762663 13.499 0.108441 13.5817 0.146892 13.6613C0.302803 13.9809 0.545689 14.2096 0.894235 14.312C1.15581 14.3893 1.42382 14.3978 1.69312 14.3544C2.30517 14.2577 2.76581 13.9388 3.05895 13.3944C3.21725 13.098 3.28419 12.7824 3.22904 12.4473C3.18265 12.1626 3.03254 11.9319 2.84506 11.7258C2.73056 11.5991 2.61269 11.476 2.49486 11.353C2.40053 11.2545 2.3062 11.156 2.21368 11.0557C2.08805 10.9198 1.96564 10.7806 1.85354 10.6337C1.75188 10.5004 1.76605 10.3322 1.87493 10.2143C1.9967 10.0821 2.15003 10.0232 2.32913 10.0359C2.54432 10.0507 2.6925 10.175 2.81169 10.3419C2.84274 10.3854 2.8707 10.431 2.89907 10.4773C2.91307 10.5001 2.9272 10.5231 2.94183 10.5461C3.09133 10.4346 3.24083 10.3233 3.3919 10.2108C3.5157 10.1186 3.64065 10.0256 3.76742 9.93108L3.76932 9.93362L3.77292 9.92698Z" fill="#3C3A3E"/>
<path d="M17.5194 14.2757L17.5215 14.2757L17.5194 14.2804V14.2757Z" fill="#3C3A3E"/>
<path d="M17.5194 14.2757C17.4246 14.2756 17.3299 14.2754 17.2352 14.2751H17.2341C16.9785 14.2745 16.7226 14.2739 16.4649 14.275C16.4183 14.275 16.3921 14.2617 16.3663 14.2221C16.2 13.9689 16.033 13.7154 15.8659 13.4621C15.6149 13.0813 15.364 12.7007 15.1164 12.3216C15.1079 12.3087 15.099 12.2961 15.0876 12.2798L15.0653 12.2481C14.9758 12.9309 14.8875 13.6009 14.7993 14.2708L13.878 14.2711C13.8816 14.241 13.8851 14.2111 13.8886 14.1815C13.8954 14.1231 13.9022 14.0655 13.9097 14.0083C13.9624 13.6024 14.0156 13.1987 14.0688 12.7947L14.0691 12.7927C14.1062 12.5112 14.1433 12.2294 14.1803 11.9466L14.2449 11.4541C14.3096 10.9611 14.3742 10.4681 14.4399 9.97517C14.4425 9.95578 14.4555 9.93085 14.4714 9.92054C14.7883 9.71378 15.1065 9.50895 15.4247 9.30413C15.4274 9.30231 15.4311 9.30135 15.4369 9.29995C15.4408 9.29902 15.4458 9.29784 15.4523 9.29593C15.3563 10.0304 15.261 10.7584 15.165 11.4864L15.1763 11.4942C15.3319 11.322 15.4874 11.1496 15.6432 10.9768L15.651 10.9682C15.9928 10.5893 16.3362 10.2085 16.6839 9.82558C16.6912 9.86772 16.698 9.90685 16.7045 9.94447L16.7053 9.94924L16.7056 9.95051L16.7069 9.9579L16.7071 9.9593L16.7239 10.0562C16.7341 10.1157 16.7443 10.1753 16.7544 10.2349C16.7797 10.3839 16.805 10.5332 16.8322 10.6818C16.84 10.7238 16.8286 10.7494 16.8007 10.7791C16.4779 11.1167 16.1565 11.4556 15.8343 11.797C15.8254 11.8064 15.8168 11.816 15.8076 11.8262L15.7908 11.8449C15.7944 11.8506 15.7978 11.8563 15.8012 11.8619C15.8075 11.8722 15.8135 11.8822 15.8202 11.8917C16.1901 12.4114 16.5594 12.9312 16.9286 13.451L17.4824 14.2303C17.4892 14.2398 17.498 14.2479 17.5068 14.2561C17.5111 14.26 17.5153 14.264 17.5194 14.2681V14.2757Z" fill="#3C3A3E"/>
<path fill-rule="evenodd" clip-rule="evenodd" d="M4.16751 14.2152C4.17757 14.1401 4.18777 14.0638 4.19812 13.9858L4.20405 13.9958C4.21298 14.0014 4.22074 14.0062 4.22769 14.0104C4.24029 14.0182 4.25022 14.0243 4.25965 14.0309C4.65909 14.3107 5.10557 14.3898 5.58039 14.3183C6.03781 14.2487 6.43854 14.0438 6.77227 13.721C7.27802 13.225 7.54152 12.6322 7.46163 11.9171C7.40365 11.4146 7.15754 11.0087 6.72717 10.7317C6.29552 10.4533 5.82327 10.4037 5.32912 10.5107C4.4787 10.6975 3.74939 11.432 3.6025 12.2889C3.54441 12.6266 3.50206 12.9656 3.4596 13.3054C3.44132 13.4518 3.42301 13.5983 3.40343 13.7449C3.35757 14.0888 3.31243 14.4328 3.26728 14.7767L3.26721 14.7773L3.23527 15.0205C3.22476 15.1009 3.21468 15.1815 3.2046 15.262L3.18921 15.3845C3.19403 15.3859 3.19786 15.3872 3.20107 15.3883C3.20691 15.3903 3.21066 15.3916 3.2144 15.3916C3.31262 15.3918 3.41075 15.3918 3.50881 15.3919C3.66406 15.3921 3.81952 15.3922 3.97463 15.3928C4.00684 15.393 4.01593 15.3797 4.01966 15.3497C4.04939 15.1101 4.0806 14.8727 4.11172 14.636L4.11952 14.5766C4.13516 14.4569 4.15115 14.3375 4.16751 14.2152ZM6.62149 12.1439C6.62555 12.1695 6.62932 12.1933 6.63343 12.2141H6.63788C6.61018 12.7199 6.3937 13.0761 5.99362 13.3158C5.69081 13.4968 5.36482 13.5477 5.02722 13.426C4.60845 13.2778 4.38296 12.8719 4.42548 12.4531C4.47702 11.8843 4.87582 11.4481 5.43053 11.3192C5.93499 11.2039 6.4227 11.4623 6.57732 11.9384C6.59996 12.0082 6.6116 12.0816 6.62149 12.1439Z" fill="#3C3A3E"/>
<path d="M10.4906 13.1161L10.499 13.0517L10.5016 13.0464C10.3586 13.1952 10.2091 13.306 10.0326 13.3756C9.68467 13.5128 9.34644 13.5122 9.02753 13.3002C8.70005 13.0812 8.55979 12.6869 8.6487 12.2758C8.77755 11.6561 9.38187 11.2167 10.0145 11.2837C10.3206 11.3159 10.5525 11.4647 10.691 11.745C10.8216 12.0085 10.842 12.2913 10.8096 12.5761C10.7736 12.8912 10.7313 13.2066 10.689 13.5218C10.6699 13.664 10.6509 13.8063 10.6324 13.9483C10.6238 14.014 10.6161 14.0797 10.6083 14.1462L10.5999 14.217H11.4181L11.4201 14.2061C11.4225 14.1932 11.4246 14.182 11.4262 14.1712C11.439 14.0747 11.4519 13.9779 11.4649 13.881L11.465 13.8804C11.5047 13.583 11.5447 13.2839 11.5821 12.9858C11.5898 12.9242 11.598 12.8626 11.6062 12.801C11.6349 12.5843 11.6638 12.3669 11.6736 12.1482C11.6929 11.723 11.5628 11.3364 11.2819 11.0143C10.8695 10.5408 10.338 10.3765 9.72919 10.4512C8.68549 10.5801 7.81464 11.5014 7.77063 12.5515C7.75195 13.0025 7.87887 13.4123 8.18167 13.7563C8.74218 14.3967 9.64415 14.4411 10.3335 14.1229C10.3479 14.1163 10.3612 14.0932 10.3637 14.076C10.4061 13.7614 10.4473 13.4462 10.4906 13.1161Z" fill="#3C3A3E"/>
<path d="M13.978 10.5584L13.9353 10.8818C13.9122 11.057 13.8891 11.2319 13.8659 11.4088C13.8125 11.4088 13.7594 11.4087 13.7067 11.4086C13.5876 11.4084 13.4695 11.4082 13.3518 11.4091C13.2139 11.4101 13.0883 11.4993 13.0464 11.6281C13.032 11.6731 13.0257 11.7211 13.0195 11.7685L13.0172 11.7853C12.9309 12.4425 12.8452 13.0932 12.7595 13.7439C12.7457 13.8488 12.7323 13.9538 12.7187 14.0594L12.6954 14.2412H11.8385L11.8514 14.1385C11.8627 14.0487 11.8738 13.9604 11.8853 13.8721L11.8957 13.7926C11.9478 13.3949 12.0002 12.9955 12.0528 12.6029C12.066 12.5033 12.0788 12.4036 12.0916 12.3039L12.0917 12.3034C12.1261 12.0362 12.1605 11.7684 12.2022 11.5012C12.2789 11.0115 12.766 10.5734 13.2588 10.5541C13.4206 10.5471 13.5826 10.5489 13.7468 10.5507C13.822 10.5515 13.8977 10.5524 13.9739 10.5524L13.978 10.5584Z" fill="#3C3A3E"/>
<path d="M18.5523 13.915V14.2757H18.6241V13.8434H18.5146L18.3877 14.172L18.2588 13.8434H18.1486V14.2757H18.2195V13.915H18.2218L18.3635 14.2757H18.4085L18.5503 13.915H18.5523Z" fill="#3C3A3E"/>
<path d="M17.9248 14.2757V13.9014H18.0607V13.8435H17.7186V13.9014H17.8539V14.2757H17.9248Z" fill="#3C3A3E"/>
<path fill-rule="evenodd" clip-rule="evenodd" d="M6.44661 8.72093H6.11675L6.11546 8.71899L5.93378 9.74981H6.14896L6.21596 9.37292H6.35834C6.58255 9.37292 6.73974 9.22345 6.73974 9.00054C6.73974 8.82401 6.61927 8.72093 6.44661 8.72093ZM6.29521 8.92838H6.42045C6.47676 8.92838 6.51451 8.96027 6.51451 9.02244C6.51451 9.11631 6.4546 9.16611 6.37857 9.16611H6.25294L6.29521 8.92838Z" fill="#3C3A3E"/>
<path fill-rule="evenodd" clip-rule="evenodd" d="M7.7158 9.52884H7.36339L7.25129 9.74853H7.00131L7.55216 8.71771H7.79311L7.98059 9.74853H7.7493L7.7158 9.52884ZM7.47098 9.32139H7.68294L7.63288 9.00054L7.47098 9.32139Z" fill="#3C3A3E"/>
<path d="M9.98683 9.33427L9.91403 9.74853H9.69949L9.88118 8.71771H10.0964L10.0242 9.12489H10.472L10.5448 8.71771H10.7599L10.5783 9.74853H10.3631L10.4352 9.33427H9.98683Z" fill="#3C3A3E"/>
<path d="M11.3894 8.71579L11.2077 9.74661L11.208 9.74532H11.7788L11.8151 9.53787H11.4595L11.4957 9.33041H11.8224L11.8587 9.12296H11.532L11.5683 8.92324H11.9239L11.9602 8.71579H11.3894Z" fill="#3C3A3E"/>
</svg>

<svg xmlns="http://www.w3.org/2000/svg" width="20" height="20" fill="none" viewBox="0 0 20 20">
    <path fill="#e25a1c" fill-rule="evenodd" d="m18.295 10.25-.035-.074q-.374-.716-.754-1.43c-.025-.048-.022-.077.013-.118.399-.466.792-.934 1.192-1.398a.12.12 0 0 0 .032-.063l-.349.091c-.481.128-.966.255-1.443.384-.045.012-.065 0-.088-.038q-.41-.687-.824-1.366a.2.2 0 0 0-.06-.066l-.066.364q-.116.643-.23 1.289c-.008.046-.02.093-.023.139-.004.044-.027.06-.067.073l-1.701.538a.2.2 0 0 0-.076.043l1.398.556-.041.032-.87.563c-.035.023-.062.026-.101.008q-.521-.233-1.044-.464a1.1 1.1 0 0 1-.404-.295c-.247-.302-.198-.645.13-.857.108-.07.23-.12.352-.16q.836-.27 1.669-.53c.047-.016.068-.037.077-.087.075-.43.152-.863.23-1.289.041-.23.063-.465.175-.676a1 1 0 0 1 .156-.228c.221-.246.53-.255.766-.021.08.079.147.172.206.268q.385.63.767 1.269c.03.05.056.06.112.045q.931-.248 1.868-.495a.9.9 0 0 1 .39-.022c.287.054.413.272.316.55a1.1 1.1 0 0 1-.207.334L18.46 8.652c-.036.042-.036.072-.012.119l.78 1.475a.8.8 0 0 1 .11.374.605.605 0 0 1-.526.603 1.1 1.1 0 0 1-.49-.06q-.584-.181-1.172-.357c-.036-.011-.05-.026-.056-.065q-.07-.413-.142-.824c-.002-.008 0-.016.002-.033.445.123.89.244 1.347.371" clip-rule="evenodd"/>
    <path fill="#3c3a3e" d="M8.848 9.767q.121-.002.234-.053l.029-.245a.4.4 0 0 1-.238.083c-.148 0-.242-.117-.242-.266a.37.37 0 0 1 .354-.366c.09 0 .164.035.209.085l.03-.247a.45.45 0 0 0-.216-.053.61.61 0 0 0-.603.602c0 .256.17.46.443.46"/>
    <path fill="#3c3a3e" fill-rule="evenodd" d="M5.159 9.529h-.353l-.112.22h-.25l.551-1.031h.241l.188 1.03h-.232zm-.246-.208h.212l-.05-.32z" clip-rule="evenodd"/>
    <path fill="#3c3a3e" d="m3.773 9.927-.006.004-.055-.075a8 8 0 0 0-.158-.208c-.245-.309-.562-.495-.96-.51-.696-.019-1.222.283-1.585.87a1.15 1.15 0 0 0-.163.78 1.3 1.3 0 0 0 .315.67q.231.268.473.527.136.145.268.291l.017.02c.098.107.196.216.276.336.147.222.11.468-.09.645a1 1 0 0 1-.22.143.61.61 0 0 1-.799-.226 2 2 0 0 1-.111-.21q-.022-.05-.046-.096l-.018-.043-.009-.023-.553.296-.349.186.043.11q.048.128.104.247c.156.32.399.549.747.651.262.077.53.086.8.042.611-.096 1.072-.415 1.365-.96.158-.296.225-.612.17-.947-.046-.284-.196-.515-.384-.721q-.172-.19-.35-.373l-.281-.297a6 6 0 0 1-.36-.422.32.32 0 0 1 .02-.42.54.54 0 0 1 .455-.178c.215.015.363.139.483.306q.045.065.087.135l.043.07.45-.336.375-.28.002.003zm13.747 4.349h.002l-.003.004zm0 0h-.285q-.383-.003-.77-.001c-.047 0-.073-.013-.099-.053l-.5-.76q-.377-.57-.75-1.14l-.028-.042-.023-.032-.266 2.023h-.921l.01-.09.022-.173.159-1.213v-.002l.111-.846.065-.493.195-1.479a.1.1 0 0 1 .031-.054q.476-.31.954-.617l.012-.004.015-.004-.287 2.19.011.008.467-.517.008-.009q.512-.569 1.033-1.142l.02.118.001.005v.002l.002.007v.001l.017.097.03.179.078.447c.008.042-.003.067-.031.097a215 215 0 0 0-.967 1.018l-.026.03-.017.018.01.017q.008.015.02.03l1.108 1.559.553.78q.011.013.025.025l.012.012z"/>
    <path fill="#3c3a3e" fill-rule="evenodd" d="m4.168 14.215.03-.23.006.01.024.015.032.02c.4.28.846.36 1.32.288.458-.07.859-.274 1.192-.597.506-.496.77-1.089.69-1.804a1.57 1.57 0 0 0-.735-1.185c-.431-.279-.904-.328-1.398-.221-.85.187-1.58.921-1.726 1.778-.059.338-.1.677-.143 1.016l-.057.44-.136 1.032-.032.244-.03.241-.016.122.012.004.013.004h.761c.032.001.04-.012.045-.042q.044-.36.092-.714l.008-.06zm2.453-2.071.012.07h.005c-.028.506-.244.862-.644 1.102-.303.18-.63.232-.967.11a.916.916 0 0 1-.602-.973c.052-.569.45-1.005 1.006-1.134.504-.115.992.143 1.146.62.023.07.035.143.044.205" clip-rule="evenodd"/>
    <path fill="#3c3a3e" d="m10.49 13.116.009-.064.003-.006c-.143.15-.293.26-.47.33-.347.137-.686.136-1.004-.076-.328-.219-.468-.613-.38-1.024.13-.62.734-1.06 1.367-.992a.8.8 0 0 1 .676.461c.13.264.151.546.119.831q-.056.472-.121.946l-.057.426-.024.198-.008.071h.818l.002-.01.006-.036.039-.29q.06-.447.117-.895l.024-.185c.029-.217.058-.434.068-.653a1.57 1.57 0 0 0-.392-1.134c-.412-.473-.944-.637-1.553-.563-1.044.13-1.914 1.05-1.958 2.1-.02.451.108.861.41 1.205.561.64 1.463.685 2.153.367.014-.007.027-.03.03-.047zm3.488-2.558-.043.324-.07.527h-.513a.325.325 0 0 0-.306.22 1 1 0 0 0-.026.14l-.003.016-.258 1.959-.04.315-.024.182h-.857l.013-.102.034-.267.01-.08.158-1.19.039-.298q.05-.402.11-.803c.077-.49.564-.928 1.057-.947.162-.007.324-.005.488-.003l.227.001zm4.574 3.357v.36h.072v-.432h-.11l-.126.329-.13-.329h-.11v.433h.072v-.361h.002l.141.36h.046l.141-.36zm-.627.361V13.9h.136v-.057h-.342v.057h.135v.375z"/>
    <path fill="#3c3a3e" fill-rule="evenodd" d="M6.447 8.72h-.33l-.002-.001-.181 1.03h.215l.067-.376h.142c.225 0 .382-.15.382-.372 0-.177-.12-.28-.293-.28m-.152.208h.125c.057 0 .095.032.095.094 0 .094-.06.144-.136.144h-.126zm1.421.6h-.353l-.112.22h-.25l.551-1.031h.241l.188 1.03h-.232zM7.47 9.32h.212L7.632 9z" clip-rule="evenodd"/>
    <path fill="#3c3a3e" d="m9.987 9.334-.073.415h-.215l.182-1.031h.215l-.072.407h.448l.073-.407h.215l-.182 1.03h-.215l.072-.414zm1.403-.618-.182 1.03h.57l.037-.208h-.355l.036-.208h.326l.037-.207h-.327l.036-.2h.356l.036-.207z"/>
</svg>
